X:1
T: The Idle Road
C:
R:Jig
Q:180
K:G
M:6/8
L:1/16
D2|D2B2B2 D2c2c2|D2B2B2 c4e2|d2B2G2 F2G2A2|B2A2G2 A2F2D2|D2B2B2 D2c2c2|D2B2B2 c4e2|d2B2G2 F2G2A2|B2G2G2 G4D2|
D2B2B2 D2c2c2|D2B2B2 c4e2|d2B2G2 F2G2A2|B2A2G2 A2F2D2|D2B2B2 D2c2c2|D2B2B2 c4e2|d2B2G2 F2G2A2|B2G2G2 G4G2|
G2g2g2 e2f2g2|f2e2d2 c2A2F2|G2g2g2 g2f2g2|a2f2d2 c2A2F2|D2B2B2 D2c2c2|D2B2B2 c4e2|d2B2G2 F2G2A2|B2G2G2 G4G2|
G2g2g2 e2f2g2|f2e2d2 c2A2F2|G2g2g2 g2f2g2|a2f2d2 c2A2F2|D2B2B2 D2c2c2|D2B2B2 c4e2|d2B2G2 F2G2A2|B2G2G2 G4||
